X:1
T:Title
%%score { ( 1 4 ) | ( 2 3 ) }
L:1/8
M:6/4
K:Bb
V:1 bass nm="Grand Piano"
V:4 bass 
V:2 bass 
V:3 bass 
V:1
 z6 z4[Q:1/4=114] D2 | [F,D]2 D2 D2 D2[K:treble] D2 D2 | [B,E]2 E2 E2 [A,E]4 E2 | %3
 [F,E]2 E2 E2 E4 E2 |[M:5/4] D2- D2- D6 |[M:1/4] D2 |[M:6/4] [F,D]2[K:treble] D2 D2 D2 D2 D2 | %7
 [B,E]2 E2 E2 [A,E]4 E2 | [F,D]2 D2 D2 =E4 _E2 |[M:5/4][K:treble] D2- D2- D6 |[M:1/4] D2 | %11
[M:6/4] [B,G]4 G2 B2 A2 G2 | [^FA]6- [FA]4 D2 | A4 A2 [^Fc]2 [FB]2 [FA]2 |[M:5/4] G2 G2 G2 _A4 | %15
[M:1/4] [D_AB]2 |[M:6/4] [GB]4 [GB]2 [Gc]2 [EB]2 [EG]2 | [DF]6 [DB]4 [DF]2 | %18
 F4 F2 F2 F2 F2[Q:1/4=112][Q:1/4=111][Q:1/4=109][Q:1/4=107][Q:1/4=106][Q:1/4=104][Q:1/4=102][Q:1/4=101][Q:1/4=99][Q:1/4=97][Q:1/4=96][Q:1/4=94][Q:1/4=92][Q:1/4=91][Q:1/4=89][Q:1/4=87] | %19
[M:5/4] [DF]2- [DF]2- [DF]6 |] %20
V:2
 z6 z4 F,2 | z2 G,2 A,2 C2 B,2 G,2 | z2 A,2 _A,2 z4 G,2 | z2 F,2 F,2 G,4 F,2 | %4
[M:5/4] [B,,F,]2- [B,,F,]2- [B,,F,]6 |[M:1/4] F,2 |[M:6/4] z2 G,2 A,2 C2 B,2 G,2 | %7
 z2 A,2 _A,2 z4 G,2 | z2 F,2 F,2 [C,G,]4 [F,A,]2 |[M:5/4] [B,,F,B,]2- [B,,F,B,]2- [B,,F,B,]6 | %10
[M:1/4] [D,^F,C]2 |[M:6/4] [G,,G,]4[K:treble] [G,B,D]2 [G,DG]2[K:bass] [G,CD]2 [G,B,D]2 | %12
 [D,D]6- [D,D]4 [D,^F,]2 | [D,^F,D]4 [D,F,D]2 [D,A,]2 [D,D]2 [D,D]2 |[M:5/4] G,2 G,2 G,2 F,4 | %15
[M:1/4] B,,2 |[M:6/4] [E,E]4 [E,E]2 [E,B,]2 [E,G,]2 [E,B,]2 | [B,,B,]6 [B,,F,]4 [B,,B,]2 | %18
 [F,A,C]4 [F,B,D]2 [F,CE]2 [F,B,D]2 [F,A,C]2 |[M:5/4] [B,,B,]2- [B,,B,]2- [B,,B,]6 |] %20
V:3
 x12 | B,,12 | C,6 F,6 | F,,12 |[M:5/4] x10 |[M:1/4] x2 |[M:6/4] B,,12 | C,6 F,6 | F,,6 z6 | %9
[M:5/4] x10 |[M:1/4] x2 |[M:6/4] x4[K:treble] x4[K:bass] x4 | x12 | x12 |[M:5/4] x10 |[M:1/4] x2 | %16
[M:6/4] x12 | x12 | x12 |[M:5/4] x10 |] %20
V:4
 x12 | x8[K:treble] x4 | x12 | x12 |[M:5/4] x10 |[M:1/4] x2 |[M:6/4] x2[K:treble] x10 | x12 | x12 | %9
[M:5/4][K:treble] x10 |[M:1/4] x2 |[M:6/4] x12 | x12 | x12 |[M:5/4] [DB]2- [DB]2- [DB]6 | %15
[M:1/4] x2 |[M:6/4] x12 | x12 | x12 |[M:5/4] x10 |] %20

